X: 33142
T: Princess Of The Manor
R: jig
M: 6/8
K: Adorian
|:EAA AB/c/d|eBd cAB|G3 EGD|G3 DEG|
EAA AB/c/d|eBd cde|gab age|1 dBe A2G:|2 dBe A2d||
|:eaa age|deg BAG|B3 dB/c/d|edB deg|
e2a age|deg B3|gab age|1 dBe A2d:|2 dBe A2G||

